symbols/web/roller_skating/materialsymbolsrounded/roller_skating_wght300gradN25fill1_48px.svg

<svg xmlns="http://www.w3.org/2000/svg" height="48" width="48"><path d="M11.3 31.1q-1.15 0-1.975-.825Q8.5 29.45 8.5 28.25V5.35q0-1.15.825-2 .825-.85 1.975-.85h9.75q1.15 0 1.975.85.825.85.825 2V8.3H18.8q-.25 0-.45.225t-.2.475q0 .25.2.45t.5.2h5v1.4q0 .4.15 1.25h-5.2q-.25 0-.45.225t-.2.475q0 .25.2.45t.5.2h5.6q.65 1.3 1.725 2.1 1.075.8 2.375 1.2l5.6 1.55q2.3.65 3.725 2.55 1.425 1.9 1.425 4.3v2.9q0 1.2-.825 2.025T36.5 31.1ZM9.65 45.45q-2.1 0-3.6-1.5t-1.5-3.6q0-2.1 1.5-3.6t3.6-1.5q2.1 0 3.6 1.5t1.5 3.6q0 2.1-1.5 3.6t-3.6 1.5Zm28.7 0q-2.1 0-3.575-1.5t-1.475-3.6q0-2.1 1.475-3.6t3.625-1.5q2.1 0 3.6 1.5t1.5 3.6q0 2.1-1.5 3.6t-3.65 1.5Zm-14.35 0q-2.1 0-3.6-1.5t-1.5-3.6q0-2.1 1.5-3.6t3.65-1.5q2.1 0 3.575 1.5t1.475 3.6q0 2.1-1.475 3.6T24 45.45Z"/></svg>

<svg xmlns="http://www.w3.org/2000/svg" height="48" width="48"><path d="M11.3 31.1Q10.15 31.1 9.325 30.275Q8.5 29.45 8.5 28.25V5.35Q8.5 4.2 9.325 3.35Q10.15 2.5 11.3 2.5H21.05Q22.2 2.5 23.025 3.35Q23.85 4.2 23.85 5.35V8.3H18.8Q18.55 8.3 18.35 8.525Q18.15 8.75 18.15 9Q18.15 9.25 18.35 9.45Q18.55 9.65 18.85 9.65H23.85V11.05Q23.85 11.45 24 12.3H18.8Q18.55 12.3 18.35 12.525Q18.15 12.75 18.15 13Q18.15 13.25 18.35 13.45Q18.55 13.65 18.85 13.65H24.45Q25.1 14.95 26.175 15.75Q27.25 16.55 28.55 16.95L34.15 18.5Q36.45 19.15 37.875 21.05Q39.3 22.95 39.3 25.35V28.25Q39.3 29.45 38.475 30.275Q37.65 31.1 36.5 31.1ZM9.65 45.45Q7.55 45.45 6.05 43.95Q4.55 42.45 4.55 40.35Q4.55 38.25 6.05 36.75Q7.55 35.25 9.65 35.25Q11.75 35.25 13.25 36.75Q14.75 38.25 14.75 40.35Q14.75 42.45 13.25 43.95Q11.75 45.45 9.65 45.45ZM38.35 45.45Q36.25 45.45 34.775 43.95Q33.3 42.45 33.3 40.35Q33.3 38.25 34.775 36.75Q36.25 35.25 38.4 35.25Q40.5 35.25 42 36.75Q43.5 38.25 43.5 40.35Q43.5 42.45 42 43.95Q40.5 45.45 38.35 45.45ZM24 45.45Q21.9 45.45 20.4 43.95Q18.9 42.45 18.9 40.35Q18.9 38.25 20.4 36.75Q21.9 35.25 24.05 35.25Q26.15 35.25 27.625 36.75Q29.1 38.25 29.1 40.35Q29.1 42.45 27.625 43.95Q26.15 45.45 24 45.45Z"/></svg>
